!!!COM:	Bach, Johann Sebastian
!!!CDT:	1685/02/21/-1750/07/28/
!!!OTL@@DE:	Es ist gewi&szlig;lich an der Zeit
!!!SCT:	BWV 248/59
!!!PC#:	362
!!!AGN:	chorale
**kern	**kern	**kern	**kern
*ICvox	*ICvox	*ICvox	*ICvox
*Ibass	*Itenor	*Ialto	*Isoprn
*I"Bass	*I"Tenor	*I"Alto	*I"Soprano
*>[A,A,B]	*>[A,A,B]	*>[A,A,B]	*>[A,A,B]
*>norep[A,B]	*>norep[A,B]	*>norep[A,B]	*>norep[A,B]
*>A	*>A	*>A	*>A
*	*oclefC4	*oclefC3	*oclefC1
*clefF4	*clefGv2	*clefG2	*clefG2
*k[f#]	*k[f#]	*k[f#]	*k[f#]
*G:	*G:	*G:	*G:
*M4/4	*M4/4	*M4/4	*M4/4
*met(c)	*met(c)	*met(c)	*met(c)
*MM100	*MM100	*MM100	*MM100
8GL	4B	4d	4g
8F#J	.	.	.
=1	=1	=1	=1
4.E	4B	8eL	8gL
.	.	8f#J	8aJ
.	4e	4g	4b
8D	.	.	.
4.C	8eL	8gL	4a
.	8dJ	8f#J	.
.	4d	4g	4g
8BB	.	.	.
=2	=2	=2	=2
8CL	8eL	4g	4a
8AAJ	8cJ	.	.
4D	8AL	4f#	4a
.	8dJ	.	.
4GG;	4d;	4g;	4b;
4C	4e	8eL	8gL
.	.	8f#J	8aJ
=3	=3	=3	=3
8GL	4d	8g	4b
8F#J	.	4b	.
4E	8GL	.	4cc
.	8AJ	16aLL	.
.	.	16gJJ	.
8BL	8BL	4f#	4dd
8AJ	8cJ	.	.
4G	4d	4g	8ccL
.	.	.	8bJ
=4	=4	=4	=4
4d	4d	4g	8aL
.	.	.	8gJ
4D	8cL	4f#	4a
.	8BJ	.	.
4G;	4B;	4d;	4g;
=:|!	=:|!	=:|!	=:|!
*>B	*>B	*>B	*>B
8GL	4d	4g	4b
8AJ	.	.	.
=5	=5	=5	=5
8BL	4d	4.g	4b
8cJ	.	.	.
4d	8dL	.	4a
.	8cJ	8f#	.
8GL	8BL	8f#L	4g
8AJ	8cJ	8eJ	.
4B	8F#L	8eL	4f#
.	8BJ	8d#J	.
=6	=6	=6	=6
8EL	8BL	4e	8gL
8F#J	8AJ	.	8aJ
4G	8AL	4dnX	4b
.	8GJ	.	.
4D;	4F#;	4d;	4a;
8dL	4D	4d	4a
8cJ	.	.	.
=7	=7	=7	=7
4.B	8GL	8dL	4g
.	8AJ	8cJ	.
.	8BL	4d	4f#
8A	8cJ	.	.
4.G	8BL	8dL	4g
.	8AJ	8cJ	.
.	4G	4B	4d
8F#	.	.	.
=8	=8	=8	=8
8EL	4G	4B	4g
8DJ	.	.	.
4C	8F#L	4e	4a
.	8EJ	.	.
4BB;	4F#;	4d#;	4b;
4E	8EL	4B	8gL
.	8F#J	.	8aJ
=9	=9	=9	=9
8EL	4.G	4e	4b
8DnXJ	.	.	.
4C	.	4e	4cc
.	8A	.	.
8BBL	8BL	8dnXL	4dd
8AAJ	8cJ	16eL	.
.	.	16f#JJ	.
4GG	4d	4g	8ccL
.	.	.	8bJ
=10	=10	=10	=10
2D	4d	4g	8aL
.	.	.	8gJ
.	8cL	4f#	4a
.	8BJ	.	.
4GG;	4B;	4d;	4g;
==	==	==	==
*-	*-	*-	*-
!!!YOR1: 371 vierstimmige Choralges&auml;nge von Johann Sebastian Bach, 
!!!YOR2: 4th ed. by Alfred D&ouml;rffel (Leipzig: Breitkopf und H&auml;rtel, 
!!!YOR2: c.1875). 178 pp. Plate "V.A.10".  reprint: J.S. Bach, 371 Four-Part 
!!!YOR4: Chorales (New York: Associated Music Publishers, Inc., c.1940).
!!!SMS: B&H, 4th ed, Alfred D&ouml;rffel, c.1875, plate V.A.10
!!!EED:  Craig Stuart Sapp
!!!EEV:  2009/05/22
